X:72
T:Forest,The. TJD.72
M:6/8
L:1/8
Q:3/8=80
S:T.J.Dixon MS2, Lincolnshire, early 19thC
R:air
A:Lincolnshire, Holton le Moor
Z:vmp.R.Greig2010
K:F
f|f2eg2f|a3bge|f2f (fga)|d3c3|!
f2eg2f|a3bge|f2f g2e|f3F2:|!
|:c|ABc ABc|dcB dcB|f2a bge|”^(f/g/a/)f in MS”(f/g/a)f c2B|!
ABc ABc|dcB dcB|g2a bge|f3F2:|

